_includes/icons/color-apple-logo.svg

<svg fill="#666" height="50" viewBox="0 0 48 48" width="50" xmlns="http://www.w3.org/2000/svg"><path d="m40.085938 32.613281c-.851563 1.835938-1.257813 2.65625-2.34375 4.273438-1.519532 2.265625-3.671875 5.089844-6.328125 5.109375-2.359375.019531-2.96875-1.507813-6.175782-1.480469-3.203125.015625-3.871093 1.507813-6.234375 1.480469-2.65625-.019531-4.6875-2.566406-6.210937-4.824219-4.257813-6.339844-4.707031-13.769531-2.074219-17.722656 1.859375-2.800781 4.804688-4.445313 7.570313-4.445313 2.816406 0 4.589843 1.511719 6.914062 1.511719 2.265625 0 3.640625-1.515625 6.898438-1.515625 2.464843 0 5.070312 1.3125 6.929687 3.574219-6.089844 3.261719-5.101562 11.761719 1.054688 14.039062z" fill="#42a5f5"/><path d="m30.046875 12.070313c1.269531-1.574219 2.230469-3.800782 1.882813-6.070313-2.070313.136719-4.492188 1.417969-5.90625 3.074219-1.28125 1.511719-2.34375 3.753906-1.929688 5.921875 2.257813.070312 4.59375-1.230469 5.953125-2.925781z" fill="#42a5f5"/><path d="m36.734375 20.421875c-8.734375 9.578125-16.734375.578125-27.507812 7.421875.375 3.023438 1.53125 6.300781 3.566406 9.328125 1.519531 2.257813 3.554687 4.804688 6.210937 4.828125 2.363282.023438 3.03125-1.46875 6.234375-1.484375 3.207032-.023437 3.816407 1.5 6.175782 1.480469 2.65625-.019531 4.808593-2.84375 6.328125-5.109375 1.085937-1.617188 1.492187-2.4375 2.34375-4.273438-5.207032-1.925781-6.695313-8.300781-3.351563-12.191406z" fill="#1e88e5"/></svg>

<svg xmlns="http://www.w3.org/2000/svg" viewBox="0 0 48 48" width="50" height="50" fill="#666"><path d="M 40.085938 32.613281 C 39.234375 34.449219 38.828125 35.269531 37.742188 36.886719 C 36.222656 39.152344 34.070313 41.976563 31.414063 41.996094 C 29.054688 42.015625 28.445313 40.488281 25.238281 40.515625 C 22.035156 40.53125 21.367188 42.023438 19.003906 41.996094 C 16.347656 41.976563 14.316406 39.429688 12.792969 37.171875 C 8.535156 30.832031 8.085938 23.402344 10.71875 19.449219 C 12.578125 16.648438 15.523438 15.003906 18.289063 15.003906 C 21.105469 15.003906 22.878906 16.515625 25.203125 16.515625 C 27.46875 16.515625 28.84375 15 32.101563 15 C 34.566406 15 37.171875 16.3125 39.03125 18.574219 C 32.941406 21.835938 33.929688 30.335938 40.085938 32.613281 Z" fill="#42a5f5"/><path d="M 30.046875 12.070313 C 31.316406 10.496094 32.277344 8.269531 31.929688 6 C 29.859375 6.136719 27.4375 7.417969 26.023438 9.074219 C 24.742188 10.585938 23.679688 12.828125 24.09375 14.996094 C 26.351563 15.066406 28.6875 13.765625 30.046875 12.070313 Z" fill="#42a5f5"/><path d="M 36.734375 20.421875 C 28 30 20 21 9.226563 27.84375 C 9.601563 30.867188 10.757813 34.144531 12.792969 37.171875 C 14.3125 39.429688 16.347656 41.976563 19.003906 42 C 21.367188 42.023438 22.035156 40.53125 25.238281 40.515625 C 28.445313 40.492188 29.054688 42.015625 31.414063 41.996094 C 34.070313 41.976563 36.222656 39.152344 37.742188 36.886719 C 38.828125 35.269531 39.234375 34.449219 40.085938 32.613281 C 34.878906 30.6875 33.390625 24.3125 36.734375 20.421875 Z" fill="#1e88e5"/></svg>
